!!!COM: Martin, Frank
!!!OTL: [T558_Mai-w24p31h6m3-9]
**kern	**dynam	**kern	**dynam	**kern	**dynam	**kern	**dynam	**kern	**dynam	**kern	**dynam	**kern	**dynam	**kern	**text	**kern	**kern	**dynam	**kern	**dynam	**kern	**dynam	**kern	**dynam	**kern	**dynam	**kern	**dynam
*grp:A	*grp:A	*grp:A	*grp:A	*grp:A	*grp:A	*grp:A	*grp:A	*grp:B	*grp:B	*grp:A	*grp:A	*grp:A	*grp:A	*grp:B	*grp:B	*grp:A	*grp:A	*grp:A	*grp:A	*grp:A	*grp:A	*grp:A	*grp:A	*grp:A	*grp:A	*grp:A	*grp:A	*grp:A
*part14	*part14	*part13	*part13	*part12	*part12	*part11	*part11	*part10	*part10	*part9	*part9	*part8	*part8	*part7	*part7	*part6	*part6	*part6	*part5	*part5	*part4	*part4	*part3	*part3	*part2	*part2	*part1	*part1
*staff15	*staff15	*staff14	*staff14	*staff13	*staff13	*staff12	*staff12	*staff11	*staff11	*staff10	*staff10	*staff9	*staff9	*staff8	*staff8	*staff7	*staff6	*staff6	*staff5	*staff5	*staff4	*staff4	*staff3	*staff3	*staff2	*staff2	*staff1	*staff1
*I"Contrabass	*I"Contrabass	*I"Violoncello	*I"Violoncello	*I"Violoncello	*I"Violoncello	*I"Viola	*I"Viola	*I"Viola	*I"Viola	*I"Violin II	*I"Violin II	*I"Violin I	*I"Violin I	*I"Alto Solo	*I"Alto Solo	*I"Piano	*I"Piano	*I"Piano	*I"Trombone	*staff5	*I"Horn in F	*I"Horn in F	*I"Horn in F	*I"Horn in F	*I"Bassoon	*I"Bassoon	*I"Alto Saxophone	*I"Alto Saxophone
*I'Cb.	*	*I'Vc.	*	*I'Vc.	*	*I'Vla.	*	*I'Vla.	*	*I'Vln. II	*	*I'Vln. I	*	*I'A.	*	*I'Pno.	*	*	*I'Tbn.	*	*I'Hn.	*	*I'Hn.	*	*I'Bsn.	*	*I'Alto Sax.	*
!!pagebreak:original
*clefF4	*	*clefF4	*	*clefF4	*	*clefC3	*	*clefC3	*	*clefG2	*	*clefG2	*	*clefG2	*	*clefF4	*clefF4	*	*clefF4	*	*clefG2	*	*clefG2	*	*clefF4	*	*clefG2	*
*ITrd7c12	*	*	*	*	*	*	*	*	*	*	*	*	*	*	*	*	*	*	*	*	*ITrd4c7	*	*ITrd4c7	*	*	*	*ITrd5c9	*
*k[]	*	*k[]	*	*k[]	*	*k[]	*	*k[]	*	*k[]	*	*k[]	*	*k[]	*	*k[]	*k[]	*	*k[]	*	*k[b-]	*	*k[b-]	*	*k[]	*	*k[b-e-a-]	*
*	*	*	*	*	*	*	*	*	*	*	*	*	*	*	*	*	*	*	*	*	*	*	*	*	*	*	*	*
*M3/4	*	*M3/4	*	*M3/4	*	*M3/4	*	*M3/4	*	*M3/4	*	*M3/4	*	*M3/4	*	*M3/4	*M3/4	*	*M3/4	*	*M3/4	*	*M3/4	*	*M3/4	*	*M3/4	*
=1	=1	=1	=1	=1	=1	=1	=1	=1	=1	=1	=1	=1	=1	=1	=1	=1	=1	=1	=1	=1	=1	=1	=1	=1	=1	=1	=1	=1
*	*	*	*	*	*	*^	*	*	*	*	*	*	*	*	*	*	*	*	*	*	*	*	*	*	*	*	*	*
!	!LO:DY:t=meno %s	!	!LO:DY:t=meno %s	!	!LO:DY:t=meno %s	!LO:TX:a:rj:t=Div.	!	!LO:DY:t=meno %s	!	!LO:DY:ed=brack	!	!LO:DY:t=meno %s	!	!LO:DY:t=meno %s	!	!	!	!	!LO:DY:t=meno %s	!	!	!	!	!	!	!	!	!	!
4ryy	4ryy	4ryy	4ryy	4ryy	4ryy	4ryy	4ryy	4ryy	8r	f	4ryy	4ryy	4ryy	4ryy	4b-X	Pac-	4ryy	4ryy	4ryy	4%3ryy	.	4%3ryy	.	4%3ryy	.	4%3ryy	.	4%3ryy	.
.	.	.	.	.	.	.	.	.	8b-X	.	.	.	.	.	.	.	.	.	.	.	.	.	.	.	.	.	.	.	.
4ryy	.	4ryy	.	4ryy	.	4ryy	4ryyyy	.	8b-L	.	4ryy	.	4ryy	.	4b-	-ken	4ryy	4ryy	.	.	.	.	.	.	.	.	.	.	.
.	.	.	.	.	.	.	.	.	8a	.	.	.	.	.	.	.	.	.	.	.	.	.	.	.	.	.	.	.	.
!	!LO:HP:t=poco cresc.	!	!LO:HP:t=poco cresc.	!	!LO:HP:t=poco cresc.	!	!	!LO:HP:t=poco cresc.	!	!	!	!LO:HP:t=poco cresc.	!	!LO:HP:t=poco cresc.	!	!	!	!	!LO:HP:t=poco crescendo	!	!	!	!	!	!	!	!	!	!
4ryy	4ryy	4ryy	4ryy	4ryy	4ryy	4ryy	4ryy	4ryy	8a	.	4ryy	4ryy	4ryy	4ryy	4b-	die	4ryy	4ryy	4ryy	.	.	.	.	.	.	.	.	.	.
.	.	.	.	.	.	.	.	.	8AJ	.	.	.	.	.	.	.	.	.	.	.	.	.	.	.	.	.	.	.	.
=2	=2	=2	=2	=2	=2	=2	=2	=2	=2	=2	=2	=2	=2	=2	=2	=2	=2	=2	=2	=2	=2	=2	=2	=2	=2	=2	=2	=2	=2
!	!	!	!	!	!	!	!	!	!	!LO:HP:t=crecsendo	!	!	!	!	!	!	!	!	!	!	!	!	!	!	!	!	!	!LO:TX:a:B:t=Poco a poco animando	!
4ryy	.	4ryy	.	4ryy	.	4ryy	4ryyyy	.	8AL	<	4ryy	.	4ryy	.	2f	Dir-	4ryy	4ryy	.	4%3ryy	.	4%3ryy	.	4%3ryy	.	4%3ryy	.	4%3ryy	.
.	.	.	.	.	.	.	.	.	8A	.	.	.	.	.	.	.	.	.	.	.	.	.	.	.	.	.	.	.	.
4ryy	.	4ryy	.	4ryy	.	4ryy	4ryy	.	8g#X	.	4ryy	.	4ryy	.	.	.	4ryy	4ryy	.	.	.	.	.	.	.	.	.	.	.
.	.	.	.	.	.	.	.	.	8A	.	.	.	.	.	.	.	.	.	.	.	.	.	.	.	.	.	.	.	.
4ryy	.	4ryy	.	4ryy	.	4ryy	4ryyyy	.	8A	.	4ryy	.	4ryy	.	4f	-nen	4ryy	4ryy	.	.	.	.	.	.	.	.	.	.	.
.	.	.	.	.	.	.	.	.	8g#J	.	.	.	.	.	.	.	.	.	.	.	.	.	.	.	.	.	.	.	.
=3	=3	=3	=3	=3	=3	=3	=3	=3	=3	=3	=3	=3	=3	=3	=3	=3	=3	=3	=3	=3	=3	=3	=3	=3	=3	=3	=3	=3	=3
4ryy	.	4ryy	.	4ryy	.	4ryy	4ryy	.	8r	.	4ryy	.	4ryy	.	[2.a-X	heiss,	4ryy	4ryy	.	4%3ryy	.	4%3ryy	.	4%3ryy	.	4%3ryy	.	4%3ryy	.
.	.	.	.	.	.	.	.	.	8Gn	.	.	.	.	.	.	.	.	.	.	.	.	.	.	.	.	.	.	.	.
4ryy	.	4ryy	.	4ryy	.	4ryy	4ryy	.	8GL	.	4ryy	.	4ryy	.	.	.	4ryy	4ryy	.	.	.	.	.	.	.	.	.	.	.
.	.	.	.	.	.	.	.	.	8B-X	.	.	.	.	.	.	.	.	.	.	.	.	.	.	.	.	.	.	.	.
4ryy	.	4ryy	.	4ryy	.	4ryy	4ryyyy	.	8B-	.	4ryy	.	4ryy	.	.	.	4ryy	4ryy	.	.	.	.	.	.	.	.	.	.	.
.	.	.	.	.	.	.	.	.	8BnJ	.	.	.	.	.	.	.	.	.	.	.	.	.	.	.	.	.	.	.	.
=4	=4	=4	=4	=4	=4	=4	=4	=4	=4	=4	=4	=4	=4	=4	=4	=4	=4	=4	=4	=4	=4	=4	=4	=4	=4	=4	=4	=4	=4
4ryy	.	4ryy	.	4ryy	.	4ryy	4ryy	.	8dL	.	4ryy	.	4ryy	.	4a-]	.	4ryy	4ryy	.	4%3ryy	.	4%3ryy	.	4%3ryy	.	4%3ryy	.	4%3ryy	.
.	.	.	.	.	.	.	.	.	8f#X	.	.	.	.	.	.	.	.	.	.	.	.	.	.	.	.	.	.	.	.
4ryy	.	4ryy	.	4ryy	.	4ryy	4ryy	.	8f#	.	4ryy	.	4ryy	.	4r	.	4ryy	4ryy	.	.	.	.	.	.	.	.	.	.	.
.	.	.	.	.	.	.	.	.	8g	.	.	.	.	.	.	.	.	.	.	.	.	.	.	.	.	.	.	.	.
4ryy	.	4ryy	.	4ryy	.	4ryy	4ryyyy	.	8b-X	.	4ryy	.	4ryy	.	4a-X	dass	4ryy	4ryy	.	.	.	.	.	.	.	.	.	.	.
.	.	.	.	.	.	.	.	.	8bnJ	.	.	.	.	.	.	.	.	.	.	.	.	.	.	.	.	.	.	.	.
=5	=5	=5	=5	=5	=5	=5	=5	=5	=5	=5	=5	=5	=5	=5	=5	=5	=5	=5	=5	=5	=5	=5	=5	=5	=5	=5	=5	=5	=5
4ryy	.	4ryy	.	4ryy	.	4ryy	4ryy	.	8ddL	.	4ryy	.	4ryy	.	4b-X	ih-	4ryy	4ryy	.	4%3ryy	.	4%3ryy	.	4%3ryy	.	4%3ryy	.	4%3ryy	.
.	.	.	.	.	.	.	.	.	8f#X	.	.	.	.	.	.	.	.	.	.	.	.	.	.	.	.	.	.	.	.
4ryy	.	4ryy	.	4ryy	.	4ryy	4ryyyy	.	8G	.	4ryy	.	4ryy	.	4b-	-nen	4ryy	4ryy	.	.	.	.	.	.	.	.	.	.	.
.	.	.	.	.	.	.	.	.	8f#	.	.	.	.	.	.	.	.	.	.	.	.	.	.	.	.	.	.	.	.
4ryy	.	4ryy	.	4ryy	.	4ryy	4ryy	.	8dd	.	4ryy	.	4ryy	.	4b-	die	4ryy	4ryy	.	.	.	.	.	.	.	.	.	.	.
.	.	.	.	.	.	.	.	.	8dd-XJ	.	.	.	.	.	.	.	.	.	.	.	.	.	.	.	.	.	.	.	.
=6	=6	=6	=6	=6	=6	=6	=6	=6	=6	=6	=6	=6	=6	=6	=6	=6	=6	=6	=6	=6	=6	=6	=6	=6	=6	=6	=6	=6	=6
!	!	!	!	!	!	!	!	!	!	!	!	!	!	!	!	!	!	!	!	!LO:TX:b:i:t=dolce	!	!LO:TX:b:i:t=dolce	!	!LO:TX:b:i:t=dolce	!	!LO:TX:b:i:t=dolce	!	!LO:TX:b:i:t=dolce	!
4.ryy	4ryy	4.ryy	4ryy	4.ryy	4ryy	4.ryy	4.ryy	4ryy	8r	.	4.ryy	4ryy	4.ryy	4ryy	4dd-X	Klei-	4.ryy	4.ryy	4ryy	4.ryy	.	4.ryy	.	4.ryy	.	4.ryy	.	4.ryy	.
.	.	.	.	.	.	.	.	.	8G	.	.	.	.	.	.	.	.	.	.	.	.	.	.	.	.	.	.	.	.
.	.	.	.	.	.	.	.	.	8e-XL	.	.	.	.	.	4dd-	-der	.	.	.	.	4ryy	.	4ryy	.	4ryy	.	4ryy	.	4ryy
4.ryy	.	4.ryy	.	4.ryy	.	4.ryy	4.ryy	.	8d	.	4.ryy	.	4.ryy	.	.	.	4.ryy	4.ryy	.	4.ryy	.	4.ryy	.	4.ryy	.	4.ryy	.	4.ryy	.
.	.	.	.	.	.	.	.	.	8f	.	.	.	.	.	4dd-	ger-	.	.	.	.	.	.	.	.	.	.	.	.	.
.	4ryy	.	4ryy	.	4ryy	.	.	4ryy	8aJ	.	.	4ryy	.	4ryy	.	.	.	.	4ryy	.	4ryy	.	4ryy	.	4ryy	.	4ryy	.	4ryy
=7	=7	=7	=7	=7	=7	=7	=7	=7	=7	=7	=7	=7	=7	=7	=7	=7	=7	=7	=7	=7	=7	=7	=7	=7	=7	=7	=7	=7	=7
4ryy	.	4ryy	.	4ryy	.	4ryy	4ryy	.	8ddL	.	4ryy	.	4ryy	.	4een	-reis-	4ryy	4ryy	.	4ryy	4ryy	4ryy	4ryy	4ryy	4ryy	4ryy	4ryy	4ryy	4ryy
.	.	.	.	.	.	.	.	.	8cc	.	.	.	.	.	.	.	.	.	.	.	.	.	.	.	.	.	.	.	.
!	!LO:HP:t=più cresc.	!	!LO:HP:t=più cresc.	!	!LO:HP:t=più cresc.	!	!	!LO:HP:t=più cresc.	!	!	!	!LO:HP:t=più cresc.	!	!LO:HP:t=più cresc.	!	!	!	!	!LO:HP:t=più cresc.	!	!	!	!	!	!	!	!	!	!
4ryy	4ryy	4ryy	4ryy	4ryy	4ryy	4ryy	4ryyyy	4ryy	8e#X	.	4ryy	4ryy	4ryy	4ryy	4ee	-sen	4ryy	4ryy	4ryy	4ryy	.	4ryy	.	4ryy	.	4ryy	.	4ryy	.
.	.	.	.	.	.	.	.	.	8d	.	.	.	.	.	.	.	.	.	.	.	.	.	.	.	.	.	.	.	.
4ryy	.	4ryy	.	4ryy	.	4ryy	4ryy	.	(8c	.	4ryy	.	4ryy	.	4r	.	4ryy	4ryy	.	4ryy	.	4ryy	.	4ryy	.	4ryy	.	4ryy	.
.	.	.	.	.	.	.	.	.	8E#XJ)	.	.	.	.	.	.	.	.	.	.	.	.	.	.	.	.	.	.	.	.
*	*	*	*	*	*	*v	*v	*	*	*	*	*	*	*	*	*	*	*	*	*	*	*	*	*	*	*	*	*	*
=	=	=	=	=	=	=	=	=	=	=	=	=	=	=	=	=	=	=	=	=	=	=	=	=	=	=	=	=
*-	*-	*-	*-	*-	*-	*-	*-	*-	*-	*-	*-	*-	*-	*-	*-	*-	*-	*-	*-	*-	*-	*-	*-	*-	*-	*-	*-	*-
!!!system-decoration: [(s1,s2)][([(s3,s4)]s5)][({(s6,s7)})]s8[(s9,s10[(s11,s12)][(s13,s14)]s15)]
